X: 1
T:Quadriglia
C:Domenico Rosica
C:Balli popolari in Abruzzo I/8
M:6/8
L:1/8
K:G
D2D|GDG BGB|d2d ded|~d2c c2d|~c2B B2D|\
GDG BGB|d2d ded|fed cBA|G3:|
g2g|fgf efe|d2B d2d|ded cBA|B2G g2g|\
fgf efe|d2B d2d|ded cBA|G3:|
d ded|BBB BdB|GGG GAG|DGD BGB|A2A ABA|\
FFF FAF|DDD DFD|AFA cAc|B2d ded|\
BBB BdB|GGG GAG|DGD BGB|e2e- eef|\
g2g- gfe|~e2d-d2B|d2c cBA|e2d- def|\
g2f fed|~e2d- d2B|d2c cBA|G2:|
